remix/Design/slice-line.svg

<svg viewBox="0 0 24 24" fill="currentColor" xmlns="http://www.w3.org/2000/svg"><path d="M15.6909 12.9147L17.4587 14.6824C11.4482 20.6929 6.4985 20.6929 2.25586 19.2786L17.8122 3.72229L21.3477 7.25782L15.6909 12.9147ZM12.8625 12.9147L18.5193 7.25782L17.8122 6.55072L6.3145 18.0484C9.04606 18.1558 11.6722 17.142 14.5808 14.633L12.8625 12.9147Z"/></svg>

<svg viewBox="0 0 24 24" xmlns="http://www.w3.org/2000/svg"><path fill="none" d="M0 0h24v24H0Z"/><path d="M15.69 12.91l1.76 1.76c-6.01 6.01-10.96 6.01-15.203 4.59L17.797 3.7l3.53 3.53 -5.657 5.65Zm-2.83 0l5.65-5.657 -.71-.71 -11.5 11.49c2.73.1 5.35-.91 8.267-3.42l-1.72-1.718Z"/></svg>
